X:1
T:Bottom of the Punchbowl
M:2/4
L:1/16
K:D
(FE)|"D" D2FA d2de|"D" d2D2 FGAF|"Em" EGBd efgf|"A7" edcB AGFE|
"D" D2FA d2de|"D" fedc d2dA|"G" BcdB "A7" ABAG|"D" F2D2 D2:|
(de)|"D" fedB ABde|"D" fedc d2dA|"G" BABd "D" ABde|"A7" f2e2 e2(de)|
"D" fedB ABde|"D" fa "A7" ef "D" d2dA|"G" BcdB "A7" ABAG|"D" F2D2 D2:|

